src/img/icons/logout.svg

<svg width="32" height="32" viewBox="0 0 32 32" fill="none" xmlns="http://www.w3.org/2000/svg">
<path d="M5.392 29C4.73486 29 4.17191 28.7656 3.70315 28.2969C3.23438 27.8281 3 27.2651 3 26.608V5.392C3 4.73486 3.23438 4.17191 3.70315 3.70315C4.17191 3.23438 4.73486 3 5.392 3H15.0384C15.3111 3 15.5394 3.0924 15.7232 3.27721C15.907 3.46201 15.9989 3.69142 15.9989 3.96544C15.9989 4.23946 15.907 4.46734 15.7232 4.64909C15.5394 4.83083 15.3111 4.92171 15.0384 4.92171H5.392C5.27449 4.92171 5.16667 4.97065 5.06853 5.06853C4.97065 5.16667 4.92171 5.27449 4.92171 5.392V26.608C4.92171 26.7255 4.97065 26.8333 5.06853 26.9315C5.16667 27.0294 5.27449 27.0783 5.392 27.0783H15.0384C15.3111 27.0783 15.5394 27.1707 15.7232 27.3555C15.907 27.5403 15.9989 27.7697 15.9989 28.0437C15.9989 28.3178 15.907 28.5456 15.7232 28.7274C15.5394 28.9091 15.3111 29 15.0384 29H5.392ZM25.295 16.9609H12.5194C12.247 16.9609 12.0187 16.8685 11.8346 16.6836C11.6509 16.4988 11.559 16.2694 11.559 15.9954C11.559 15.7214 11.6509 15.4935 11.8346 15.3118C12.0187 15.13 12.247 15.0391 12.5194 15.0391H25.2636L22.209 11.9841C22.0247 11.7999 21.9327 11.5795 21.933 11.3231C21.9332 11.0666 22.0305 10.8387 22.2247 10.6394C22.4187 10.4401 22.6462 10.3407 22.9072 10.3412C23.1682 10.3419 23.3994 10.4387 23.6008 10.6314L28.147 15.1776C28.3856 15.4225 28.5049 15.7037 28.5049 16.021C28.5049 16.3384 28.3856 16.616 28.147 16.8538L23.6169 21.3843C23.4371 21.5737 23.2175 21.6667 22.9581 21.6634C22.6986 21.6598 22.4644 21.5589 22.2557 21.3606C22.0683 21.1613 21.9759 20.9318 21.9785 20.6724C21.981 20.4129 22.0794 20.1861 22.2736 19.9921L25.295 16.9609Z" fill="#131212"/>
</svg>

<svg xmlns="http://www.w3.org/2000/svg" viewBox="0 0 32 32">
  <path fill="currentColor" d="M5.392 29c-.657 0-1.22-.234-1.689-.703A2.303 2.303 0 0 1 3 26.608V5.392c0-.657.234-1.22.703-1.689A2.303 2.303 0 0 1 5.392 3h9.646c.273 0 .501.092.685.277a.937.937 0 0 1 .276.688.935.935 0 0 1-.96.956H5.391a.45.45 0 0 0-.323.148.45.45 0 0 0-.147.323v21.216a.45.45 0 0 0 .147.323.45.45 0 0 0 .323.147h9.646a.93.93 0 0 1 .685.277.937.937 0 0 1 .276.689.935.935 0 0 1-.96.956H5.391Zm19.903-12.04H12.519a.928.928 0 0 1-.684-.276.937.937 0 0 1-.276-.689.936.936 0 0 1 .96-.956h12.745l-3.055-3.055a.9.9 0 0 1-.276-.66c0-.257.098-.485.292-.685a.92.92 0 0 1 .682-.298.98.98 0 0 1 .694.29l4.546 4.547c.239.244.358.526.358.843 0 .317-.12.595-.358.833l-4.53 4.53c-.18.19-.4.283-.659.28a1.017 1.017 0 0 1-.702-.303.96.96 0 0 1 .018-1.369l3.021-3.031Z"/>
</svg>
